X: 1
T: Delaney's Frolics
M: 4/4
L: 1/8
R: reel
K: Gmaj
B3G A2Bc|d2cA BGG2|B3G A2Bc|dfeg fddc|
B3G A2Bc|dBcA BGGA|B3G A2Bc|dfeg fdde||
K: D
fddc d2fa|gefd ceeg|fddc defa|gefd Adde|
fddc d2fa|gefd ceeg|fddc defa|gefd Add=c|
